X: 61
T: No_24_My_Gay_Dress.krn
N: Derived from No_24_My_Gay_Dress.krn
%%abc-version 2.0
%%abcx-abcm2ps-target-version 5.9.1 (29 Sep 2008)
%%abc-creator hum2abc beta
%%abcx-conversion-date 2019/03/15 08:35:44
%%humdrum-veritas 2915797340
%%humdrum-veritas-data 639533668
%%linebreak <none>
%%barnumbers 0
L: 1/8
M: 2/4
K: G clef=bass
[K:clef=bass][M:2/4]z2z z/ B,/ ]|:  
B,3/B,/B,2 | 
A,G, A,G, | 
E,/E,E,/ E, z/ B,/ | 
B,3/B,/B,2 | 
A,G, A,G, ||  
[M:3/4]E,/E,E,/ E,A, A,G, | 
E,/E,E,/ E, z E,B,, | 
E,/E,E,/ E,A, A,G, | 
E,/E,E,/ E, z E,B,, | 
E,/E,E,/ E,A, A,G, | 
E,/E,E,/ E, z E,B,, | 
E,/E,E,/ E,A, A,G, ||  
[M:2/4]E,/E,E,/ E, z/ B,/ :|]  
[M:2/4]E,/E,E,/ E, z |]  



